;FLAVOR:Marlin
;TIME:13764
;Filament used: 16.546m
;Layer height: 0.2
;MINX:41.707
;MINY:47.703
;MINZ:0.15
;MAXX:208.296
;MAXY:157.8
;MAXZ:39.95
;Generated with Cura_SteamEngine 4.2.1
M82 ;absolute extrusion mode
G21 ; set units to millimeters
G90 ; use absolute positioning
M82 ; absolute extrusion mode
M104 S200 ; set extruder temp
M140 S60 ; set bed temp
M190 S60 ; wait for bed temp
M109 S200 ; wait for extruder temp
G28 W ; home all without mesh bed level
G80 ; mesh bed leveling
G92 E0.0 ; reset extruder distance position
G1 Y-3.0 F1000.0 ; go outside print area
G1 X60.0 E9.0 F1000.0 ; intro line
G1 X100.0 E21.5 F1000.0 ; intro line
G92 E0.0 ; reset extruder distance position
M141 S28
G92 E0
G92 E0
G1 F2100 E-0.8
;LAYER_COUNT:200
;LAYER:0
M107
G0 F3600 X152.721 Y89.334 Z0.15
;TYPE:SKIRT
G1 F2100 E0
G1 F1800 X152.765 Y122.662 E0.83137
G1 X152.975 Y122.656 E0.83661
G1 X157.628 Y122.656 E0.95268
G1 X157.4 Y122.099 E0.96769
G1 X157.238 Y121.668 E0.97918
G1 X156.903 Y120.688 E1.00502
G1 X156.767 Y120.248 E1.0165
G1 X156.488 Y119.241 E1.04257
G1 X156.375 Y118.778 E1.05446
G1 X156.155 Y117.742 E1.08088
G1 X156.072 Y117.282 E1.09254
G1 X155.916 Y116.245 E1.1187
G1 X155.861 Y115.786 E1.13023
G1 X155.768 Y114.755 E1.15605
G1 X155.74 Y114.293 E1.1676
G1 X155.708 Y113.249 E1.19365
G1 X155.707 Y112.782 E1.2053
G1 X155.738 Y111.723 E1.23173
G1 X155.767 Y111.25 E1.24355
G1 X155.86 Y110.22 E1.26935
G1 X155.915 Y109.761 E1.28088
G1 X156.071 Y108.724 E1.30704
G1 X156.155 Y108.258 E1.31885
G1 X156.376 Y107.221 E1.3453
G1 X156.484 Y106.78 E1.35663
G1 X156.761 Y105.772 E1.3827
G1 X156.901 Y105.318 E1.39455
G1 X157.235 Y104.34 E1.42033
G1 X157.399 Y103.903 E1.43198
G1 X157.797 Y102.932 E1.45815
G1 X157.983 Y102.513 E1.46959
G1 X158.436 Y101.57 E1.49569
G1 X158.655 Y101.147 E1.50757
G1 X159.171 Y100.222 E1.53399
G1 X159.408 Y99.825 E1.54552
G1 X159.964 Y98.954 E1.5713
G1 X160.225 Y98.572 E1.58284
G1 X160.84 Y97.724 E1.60897
G1 X161.131 Y97.347 E1.62085
G1 X161.804 Y96.529 E1.64728
G1 X162.111 Y96.178 E1.65891
G1 X162.824 Y95.41 E1.68505
G1 X163.145 Y95.084 E1.69646
G1 X163.901 Y94.36 E1.72257
G1 X164.254 Y94.042 E1.73443
G1 X165.053 Y93.365 E1.76055
G1 X165.419 Y93.073 E1.77223
G1 X166.252 Y92.449 E1.79819
G1 X166.569 Y92.225 E1.80787
G1 X166.258 Y91.962 E1.81803
G1 X165.906 Y91.645 E1.82985
G1 X165.15 Y90.922 E1.85595
G1 X164.825 Y90.592 E1.8675
G1 X164.112 Y89.824 E1.89364
G1 X163.803 Y89.47 E1.90536
G1 X163.133 Y88.655 E1.93168
G1 X162.86 Y88.302 E1.94281
G1 X162.598 Y88.456 E1.95039
G1 X161.88 Y88.786 E1.9701
G1 X161.133 Y89.042 E1.9898
G1 X160.364 Y89.221 E2.0095
G1 X159.581 Y89.321 E2.02919
G1 X158.984 Y89.344 E2.04409
G1 X152.911 Y89.344 E2.19558
G1 X152.721 Y89.334 E2.20033
G0 F3600 X152.911 Y88.944
G1 F1800 X152.321 Y88.913 E2.21507
G1 X152.365 Y123.091 E3.06764
G1 X152.975 Y123.056 E3.08288
G1 X158.228 Y123.056 E3.21392
G1 X158.167 Y122.918 E3.21768
G1 X157.77 Y121.948 E3.24383
G1 X157.617 Y121.539 E3.25472
G1 X157.282 Y120.559 E3.28056
G1 X157.153 Y120.141 E3.29147
G1 X156.874 Y119.134 E3.31754
G1 X156.766 Y118.695 E3.32881
G1 X156.546 Y117.659 E3.35523
G1 X156.467 Y117.223 E3.36629
G1 X156.311 Y116.186 E3.39244
G1 X156.259 Y115.75 E3.4034
G1 X156.166 Y114.719 E3.42922
G1 X156.139 Y114.281 E3.44017
G1 X156.107 Y113.237 E3.46622
G1 X156.107 Y112.793 E3.4773
G1 X156.138 Y111.734 E3.50373
G1 X156.165 Y111.286 E3.51492
G1 X156.258 Y110.256 E3.54072
G1 X156.31 Y109.82 E3.55167
G1 X156.466 Y108.783 E3.57783
G1 X156.547 Y108.342 E3.58902
G1 X156.768 Y107.305 E3.61547
G1 X156.87 Y106.886 E3.62622
G1 X157.147 Y105.878 E3.6523
G1 X157.279 Y105.447 E3.66354
G1 X157.613 Y104.469 E3.68932
G1 X157.769 Y104.054 E3.70038
G1 X158.167 Y103.083 E3.72656
G1 X158.344 Y102.686 E3.7374
G1 X158.797 Y101.743 E3.7635
G1 X159.005 Y101.342 E3.77477
G1 X159.521 Y100.417 E3.80119
G1 X159.746 Y100.04 E3.81214
G1 X160.302 Y99.169 E3.83792
G1 X160.549 Y98.807 E3.84885
G1 X161.164 Y97.959 E3.87498
G1 X161.439 Y97.601 E3.88624
G1 X162.112 Y96.783 E3.91267
G1 X162.404 Y96.45 E3.92371
G1 X163.117 Y95.682 E3.94985
G1 X163.422 Y95.373 E3.96069
G1 X164.178 Y94.649 E3.9868
G1 X164.512 Y94.347 E3.99803
G1 X165.311 Y93.67 E4.02415
G1 X165.658 Y93.393 E4.03523
G1 X166.491 Y92.769 E4.06119
G1 X166.844 Y92.521 E4.07195
G1 X167.233 Y92.263 E4.0836
G1 X166.517 Y91.657 E4.107
G1 X166.182 Y91.356 E4.11823
G1 X165.426 Y90.633 E4.14433
G1 X165.118 Y90.32 E4.15528
G1 X164.405 Y89.552 E4.18142
G1 X164.112 Y89.216 E4.19254
G1 X163.442 Y88.401 E4.21886
G1 X163.171 Y88.051 E4.2299
G1 X162.969 Y87.772 E4.23849
G1 X162.839 Y87.861 E4.24242
G1 X162.162 Y88.227 E4.26162
G1 X161.451 Y88.521 E4.28081
G1 X160.714 Y88.739 E4.29999
G1 X159.957 Y88.88 E4.31919
G1 X158.984 Y88.944 E4.34352
G1 X152.911 Y88.944 E4.49501
G0 F3600 X152.911 Y88.544
G1 F1800 X152.164 Y88.504 E4.51367
G1 X151.92 Y88.465 E4.51983
G1 X151.966 Y123.539 E5.39476
G1 X152.449 Y123.476 E5.40691
G1 X152.975 Y123.456 E5.42004
G1 X158.856 Y123.456 E5.56674
G1 X158.708 Y123.149 E5.57524
G1 X158.538 Y122.766 E5.5857
G1 X158.141 Y121.796 E5.61184
G1 X157.995 Y121.409 E5.62216
G1 X157.66 Y120.429 E5.64799
G1 X157.538 Y120.034 E5.65831
G1 X157.259 Y119.027 E5.68437
G1 X157.158 Y118.612 E5.69503
G1 X156.938 Y117.576 E5.72145
G1 X156.863 Y117.163 E5.73192
G1 X156.707 Y116.126 E5.75808
G1 X156.657 Y115.714 E5.76843
G1 X156.564 Y114.683 E5.79425
G1 X156.539 Y114.268 E5.80462
G1 X156.507 Y113.224 E5.83068
G1 X156.507 Y112.805 E5.84113
G1 X156.538 Y111.746 E5.86756
G1 X156.563 Y111.322 E5.87815
G1 X156.656 Y110.292 E5.90395
G1 X156.706 Y109.88 E5.9143
G1 X156.862 Y108.843 E5.94046
G1 X156.938 Y108.425 E5.95106
G1 X157.159 Y107.388 E5.97751
G1 X157.255 Y106.992 E5.98768
G1 X157.532 Y105.984 E6.01375
G1 X157.658 Y105.577 E6.02438
G1 X157.992 Y104.599 E6.05016
G1 X158.139 Y104.206 E6.06063
G1 X158.537 Y103.235 E6.0868
G1 X158.704 Y102.859 E6.09707
G1 X159.157 Y101.916 E6.12316
G1 X159.354 Y101.537 E6.13382
G1 X159.87 Y100.612 E6.16024
G1 X160.083 Y100.256 E6.17059
G1 X160.639 Y99.385 E6.19637
G1 X160.872 Y99.041 E6.20673
G1 X161.487 Y98.193 E6.23286
G1 X161.748 Y97.856 E6.24349
G1 X162.421 Y97.038 E6.26992
G1 X162.697 Y96.722 E6.28038
G1 X163.41 Y95.954 E6.30652
G1 X163.698 Y95.661 E6.31677
G1 X164.454 Y94.937 E6.34288
G1 X164.771 Y94.652 E6.35352
G1 X165.57 Y93.975 E6.37964
G1 X165.898 Y93.714 E6.3901
G1 X166.731 Y93.09 E6.41606
G1 X167.065 Y92.854 E6.42626
G1 X167.91 Y92.295 E6.45154
G1 X167.901 Y92.288 E6.45182
G1 X167.575 Y92.028 E6.46222
G1 X166.775 Y91.351 E6.48837
G1 X166.459 Y91.067 E6.49896
G1 X165.703 Y90.344 E6.52506
G1 X165.411 Y90.048 E6.53543
G1 X164.698 Y89.28 E6.56157
G1 X164.421 Y88.962 E6.57209
G1 X163.751 Y88.147 E6.59841
G1 X163.495 Y87.816 E6.60885
G1 X163.067 Y87.227 E6.62701
G1 X163.032 Y87.255 E6.62813
G1 X162.4 Y87.654 E6.64677
G1 X161.728 Y87.984 E6.66545
G1 X161.026 Y88.24 E6.68409
G1 X160.299 Y88.419 E6.70276
G1 X159.558 Y88.52 E6.72142
G1 X158.984 Y88.544 E6.73575
G1 X152.911 Y88.544 E6.88724
G0 F3600 X152.911 Y88.144
G1 F1800 X152.186 Y88.104 E6.90535
G1 X151.519 Y87.993 E6.92222
G1 X151.566 Y124.017 E7.82084
G1 X152.05 Y123.921 E7.83315
G1 X152.975 Y123.856 E7.85628
G1 X159.491 Y123.856 E8.01883
G1 X159.068 Y122.976 E8.04318
G1 X158.908 Y122.615 E8.05303
G1 X158.511 Y121.645 E8.07918
G1 X158.374 Y121.28 E8.0889
G1 X158.039 Y120.3 E8.11474
G1 X157.924 Y119.927 E8.12447
G1 X157.645 Y118.92 E8.15054
G1 X157.549 Y118.529 E8.16058
G1 X157.329 Y117.493 E8.187
G1 X157.258 Y117.104 E8.19687
G1 X157.102 Y116.067 E8.22303
G1 X157.056 Y115.678 E8.2328
G1 X156.963 Y114.647 E8.25862
G1 X156.939 Y114.256 E8.26839
G1 X156.907 Y113.212 E8.29445
G1 X156.907 Y112.817 E8.3043
G1 X156.938 Y111.758 E8.33073
G1 X156.962 Y111.357 E8.34075
G1 X157.055 Y110.327 E8.36655
G1 X157.101 Y109.939 E8.37629
G1 X157.257 Y108.902 E8.40245
G1 X157.329 Y108.508 E8.41244
G1 X157.55 Y107.471 E8.43889
G1 X157.641 Y107.098 E8.44847
G1 X157.918 Y106.09 E8.47455
G1 X158.036 Y105.706 E8.48457
G1 X158.37 Y104.728 E8.51035
G1 X158.509 Y104.358 E8.52021
G1 X158.907 Y103.387 E8.54638
G1 X159.065 Y103.032 E8.55608
G1 X159.518 Y102.089 E8.58217
G1 X159.703 Y101.732 E8.5922
G1 X160.219 Y100.807 E8.61863
G1 X160.42 Y100.471 E8.62839
G1 X160.976 Y99.6 E8.65417
G1 X161.196 Y99.276 E8.66394
G1 X161.811 Y98.428 E8.69007
G1 X162.057 Y98.11 E8.7001
G1 X162.73 Y97.292 E8.72652
G1 X162.99 Y96.995 E8.73637
G1 X163.703 Y96.227 E8.76251
G1 X163.975 Y95.95 E8.77219
G1 X164.731 Y95.226 E8.79831
G1 X165.029 Y94.958 E8.8083
G1 X165.828 Y94.281 E8.83443
G1 X166.138 Y94.034 E8.84431
G1 X166.971 Y93.41 E8.87028
G1 X167.286 Y93.188 E8.87989
G1 X168.164 Y92.607 E8.90615
G1 X168.513 Y92.391 E8.91639
G1 X168.622 Y92.328 E8.91953
G1 X168.141 Y91.968 E8.93452
G1 X167.833 Y91.723 E8.94434
G1 X167.033 Y91.046 E8.97048
G1 X166.735 Y90.778 E8.98048
G1 X165.979 Y90.055 E9.00657
G1 X165.704 Y89.775 E9.01636
G1 X164.991 Y89.007 E9.0425
G1 X164.73 Y88.708 E9.0524
G1 X164.06 Y87.893 E9.07872
G1 X163.818 Y87.581 E9.08857
G1 X163.202 Y86.733 E9.11472
G1 X163.152 Y86.659 E9.11694
G1 X162.592 Y87.07 E9.13427
G1 X161.963 Y87.433 E9.15239
G1 X161.298 Y87.725 E9.1705
G1 X160.604 Y87.942 E9.18864
G1 X159.892 Y88.081 E9.20674
G1 X158.984 Y88.144 E9.22944
G1 X152.911 Y88.144 E9.38094
G0 F3600 X152.911 Y87.744
G1 F1800 X152.208 Y87.704 E9.3985
G1 X151.514 Y87.585 E9.41606
G1 X151.119 Y87.469 E9.42633
G1 X151.167 Y124.533 E10.3509
G1 X151.69 Y124.391 E10.36442
G1 X152.386 Y124.284 E10.38198
G1 X152.975 Y124.256 E10.39669
G1 X159.883 Y124.256 E10.56901
G1 X160.163 Y124.272 E10.57601
G1 X160.057 Y124.082 E10.58144
G1 X159.883 Y123.746 E10.59088
G1 X159.429 Y122.802 E10.61701
G1 X159.278 Y122.463 E10.62626
G1 X158.881 Y121.493 E10.65241
G1 X158.752 Y121.15 E10.66155
G1 X158.417 Y120.17 E10.68739
G1 X158.309 Y119.82 E10.69652
G1 X158.03 Y118.813 E10.72259
G1 X157.94 Y118.446 E10.73201
G1 X157.72 Y117.41 E10.75843
G1 X157.654 Y117.044 E10.76771
G1 X157.498 Y116.007 E10.79387
G1 X157.454 Y115.642 E10.80304
G1 X157.361 Y114.611 E10.82886
G1 X157.339 Y114.244 E10.83804
G1 X157.307 Y113.2 E10.86409
G1 X157.307 Y112.829 E10.87334
G1 X157.338 Y111.77 E10.89977
G1 X157.36 Y111.393 E10.90919
G1 X157.453 Y110.363 E10.93499
G1 X157.497 Y109.999 E10.94414
G1 X157.653 Y108.962 E10.9703
G1 X157.72 Y108.592 E10.97968
G1 X157.941 Y107.555 E11.00613
G1 X158.027 Y107.204 E11.01514
G1 X158.304 Y106.196 E11.04122
G1 X158.415 Y105.835 E11.05064
G1 X158.749 Y104.857 E11.07642
G1 X158.879 Y104.51 E11.08566
G1 X159.277 Y103.539 E11.11184
G1 X159.425 Y103.205 E11.12095
G1 X159.878 Y102.262 E11.14705
G1 X160.052 Y101.927 E11.15646
G1 X160.568 Y101.002 E11.18289
G1 X160.757 Y100.686 E11.19207
G1 X161.313 Y99.815 E11.21785
G1 X161.52 Y99.511 E11.22702
G1 X162.135 Y98.663 E11.25315
G1 X162.366 Y98.364 E11.26258
G1 X163.039 Y97.546 E11.289
G1 X163.283 Y97.267 E11.29825
G1 X163.996 Y96.499 E11.32439
G1 X164.252 Y96.239 E11.33349
G1 X165.008 Y95.515 E11.3596
G1 X165.288 Y95.263 E11.369
G1 X166.087 Y94.586 E11.39512
G1 X166.378 Y94.354 E11.40441
G1 X167.211 Y93.73 E11.43037
G1 X167.507 Y93.522 E11.43939
G1 X168.385 Y92.941 E11.46566
G1 X168.713 Y92.738 E11.47528
G1 X169.353 Y92.369 E11.49371
G1 X169.217 Y92.274 E11.49785
G1 X168.381 Y91.648 E11.5239
G1 X168.092 Y91.418 E11.53311
G1 X167.292 Y90.741 E11.55925
G1 X167.012 Y90.489 E11.56865
G1 X166.256 Y89.766 E11.59475
G1 X165.997 Y89.503 E11.60395
G1 X165.284 Y88.735 E11.63009
G1 X165.039 Y88.454 E11.63939
G1 X164.369 Y87.639 E11.66571
G1 X164.142 Y87.346 E11.67496
G1 X163.526 Y86.498 E11.7011
G1 X163.316 Y86.19 E11.7104
G1 X163.231 Y86.057 E11.71434
G1 X162.736 Y86.48 E11.73058
G1 X162.153 Y86.873 E11.74812
G1 X161.528 Y87.198 E11.76569
G1 X160.871 Y87.45 E11.78325
G1 X160.189 Y87.626 E11.80082
G1 X159.492 Y87.723 E11.81837
G1 X158.984 Y87.744 E11.83105
G1 X152.911 Y87.744 E11.98255
G0 F3600 X152.911 Y87.344
G1 F1800 X152.231 Y87.304 E11.99954
G1 X151.561 Y87.185 E12.01651
G1 X150.909 Y86.988 E12.0335
G1 X150.718 Y86.905 E12.0387
G1 X150.768 Y125.095 E12.99135
G1 X151.372 Y124.882 E13.00733
G1 X152.036 Y124.732 E13.02431
G1 X152.975 Y124.656 E13.04781
G1 X159.883 Y124.656 E13.22013
G1 X160.563 Y124.696 E13.23712
G1 X160.89 Y124.754 E13.24541
G1 X160.406 Y123.887 E13.27018
G1 X160.243 Y123.573 E13.279
G1 X159.789 Y122.629 E13.30513
G1 X159.648 Y122.312 E13.31379
G1 X159.251 Y121.342 E13.33993
G1 X159.131 Y121.021 E13.34848
G1 X158.796 Y120.041 E13.37431
G1 X158.695 Y119.714 E13.38285
G1 X158.416 Y118.707 E13.40892
G1 X158.332 Y118.363 E13.41775
G1 X158.112 Y117.327 E13.44417
G1 X158.05 Y116.985 E13.45284
G1 X157.894 Y115.948 E13.479
G1 X157.852 Y115.606 E13.48759
G1 X157.759 Y114.575 E13.51342
G1 X157.739 Y114.232 E13.52199
G1 X157.707 Y113.188 E13.54804
G1 X157.706 Y112.84 E13.55672
G1 X157.737 Y111.781 E13.58315
G1 X157.758 Y111.429 E13.59195
G1 X157.851 Y110.399 E13.61775
G1 X157.893 Y110.058 E13.62632
G1 X158.049 Y109.021 E13.65248
G1 X158.111 Y108.675 E13.66124
G1 X158.332 Y107.638 E13.68769
G1 X158.412 Y107.31 E13.69612
G1 X158.689 Y106.302 E13.72219
G1 X158.793 Y105.965 E13.73099
G1 X159.127 Y104.987 E13.75677
G1 X159.249 Y104.661 E13.76545
G1 X159.647 Y103.69 E13.79163
G1 X159.786 Y103.379 E13.80013
G1 X160.239 Y102.436 E13.82622
G1 X160.402 Y102.121 E13.83507
G1 X160.918 Y101.196 E13.86149
G1 X161.094 Y100.901 E13.87006
G1 X161.65 Y100.03 E13.89584
G1 X161.844 Y99.746 E13.90442
G1 X162.459 Y98.898 E13.93055
G1 X162.675 Y98.618 E13.93937
G1 X163.348 Y97.8 E13.96579
G1 X163.576 Y97.539 E13.97444
G1 X164.289 Y96.771 E14.00058
G1 X164.528 Y96.528 E14.00908
G1 X165.284 Y95.804 E14.03519
G1 X165.547 Y95.568 E14.04401
G1 X166.346 Y94.891 E14.07013
G1 X166.618 Y94.674 E14.07881
G1 X167.451 Y94.05 E14.10478
G1 X167.727 Y93.855 E14.11321
G1 X168.605 Y93.274 E14.13947
G1 X168.912 Y93.085 E14.14846
G1 X169.81 Y92.568 E14.17431
G1 X170.11 Y92.406 E14.18281
G1 X170.117 Y92.403 E14.183
G1 X169.732 Y92.148 E14.19452
G1 X169.457 Y91.954 E14.20292
G1 X168.621 Y91.328 E14.22897
G1 X168.35 Y91.112 E14.23762
G1 X167.55 Y90.435 E14.26376
G1 X167.288 Y90.2 E14.27254
G1 X166.532 Y89.477 E14.29863
G1 X166.29 Y89.231 E14.30724
G1 X165.577 Y88.463 E14.33338
G1 X165.348 Y88.2 E14.34208
G1 X164.678 Y87.385 E14.3684
G1 X164.465 Y87.111 E14.37706
G1 X163.849 Y86.263 E14.4032
G1 X163.653 Y85.975 E14.41189
G1 X163.298 Y85.419 E14.42835
G1 X162.831 Y85.885 E14.4448
G1 X162.295 Y86.306 E14.46181
G1 X161.715 Y86.661 E14.47877
G1 X161.096 Y86.946 E14.49577
G1 X160.448 Y87.156 E14.51276
G1 X159.781 Y87.289 E14.52973
G1 X158.984 Y87.344 E14.54965
G1 X152.911 Y87.344 E14.70115
G0 F3600 X152.911 Y86.944
G1 F1800 X152.255 Y86.904 E14.71754
G1 X151.609 Y86.785 E14.73393
G1 X150.982 Y86.588 E14.75032
G1 X150.384 Y86.316 E14.76671
G1 X150.317 Y86.275 E14.76867
G1 X150.369 Y125.734 E15.75298
G1 X150.498 Y125.657 E15.75673
G1 X151.099 Y125.392 E15.77311
G1 X151.728 Y125.202 E15.7895
G1 X152.375 Y125.089 E15.80588
G1 X152.975 Y125.056 E15.82087
G1 X159.883 Y125.056 E15.99319
G1 X160.539 Y125.096 E16.00959
G1 X161.185 Y125.215 E16.02597
G1 X161.757 Y125.395 E16.04093
G1 X161.434 Y124.889 E16.05591
G1 X161.271 Y124.616 E16.06384
G1 X160.755 Y123.692 E16.09024
G1 X160.604 Y123.399 E16.09846
G1 X160.15 Y122.455 E16.12459
G1 X160.018 Y122.16 E16.13265
G1 X159.621 Y121.19 E16.1588
G1 X159.509 Y120.892 E16.16674
G1 X159.174 Y119.912 E16.19257
G1 X159.08 Y119.607 E16.20054
G1 X158.801 Y118.6 E16.2266
G1 X158.723 Y118.28 E16.23482
G1 X158.503 Y117.244 E16.26124
G1 X158.445 Y116.925 E16.26933
G1 X158.289 Y115.888 E16.29548
G1 X158.251 Y115.57 E16.30347
G1 X158.158 Y114.539 E16.3293
G1 X158.139 Y114.219 E16.33729
G1 X158.107 Y113.175 E16.36335
G1 X158.106 Y112.852 E16.37141
G1 X158.137 Y111.793 E16.39783
G1 X158.157 Y111.465 E16.40603
G1 X158.25 Y110.435 E16.43183
G1 X158.288 Y110.118 E16.43979
G1 X158.444 Y109.081 E16.46595
G1 X158.503 Y108.758 E16.47414
G1 X158.724 Y107.721 E16.50059
G1 X158.798 Y107.416 E16.50842
G1 X159.075 Y106.408 E16.5345
G1 X159.172 Y106.094 E16.5427
G1 X159.506 Y105.116 E16.56847
G1 X159.619 Y104.813 E16.57654
G1 X160.017 Y103.842 E16.60272
G1 X160.147 Y103.552 E16.61065
