;FLAVOR:Marlin
;TIME:1534
;Filament used: 0.608632m
;Layer height: 0.1
;MINX:108.76
;MINY:85.594
;MINZ:0.15
;MAXX:141.241
;MAXY:124.406
;MAXZ:6.15
;Generated with Cura_SteamEngine 4.1.0
M82 ;absolute extrusion mode
G21 ; set units to millimeters
G90 ; use absolute positioning
M82 ; absolute extrusion mode
M104 S200 ; set extruder temp
M140 S60 ; set bed temp
M190 S60 ; wait for bed temp
M109 S200 ; wait for extruder temp
G28 W ; home all without mesh bed level
G80 ; mesh bed leveling
G92 E0.0 ; reset extruder distance position
G1 Y-3.0 F1000.0 ; go outside print area
G1 X60.0 E9.0 F1000.0 ; intro line
G1 X100.0 E21.5 F1000.0 ; intro line
G92 E0.0 ; reset extruder distance position
G92 E0
G92 E0
G1 F2100 E-0.8
;LAYER_COUNT:68
;LAYER:0
M107
G0 F3600 X111.707 Y90.678 Z0.15
;TYPE:SKIRT
G1 F2100 E0
G1 F1800 X112.105 Y90.275 E0.01413
G1 X112.384 Y90.051 E0.02305
G1 X112.551 Y89.929 E0.02821
G1 X112.806 Y89.757 E0.03589
G1 X113.105 Y89.572 E0.04466
G1 X113.137 Y89.553 E0.04559
G1 X114.654 Y88.634 E0.08983
G1 X114.696 Y88.609 E0.09105
G1 X115.407 Y88.19 E0.11164
G1 X115.495 Y88.14 E0.11416
G1 X116.06 Y87.826 E0.13028
G1 X116.217 Y87.743 E0.13471
G1 X116.814 Y87.445 E0.15136
G1 X116.979 Y87.367 E0.15591
G1 X117.595 Y87.094 E0.17272
G1 X117.763 Y87.024 E0.17726
G1 X118.43 Y86.764 E0.19512
G1 X118.597 Y86.703 E0.19955
G1 X119.195 Y86.5 E0.2153
G1 X119.373 Y86.444 E0.21996
G1 X120.053 Y86.248 E0.23761
G1 X120.229 Y86.202 E0.24215
G1 X120.901 Y86.041 E0.25939
G1 X121.062 Y86.006 E0.2635
G1 X121.719 Y85.877 E0.2802
G1 X121.92 Y85.843 E0.28529
G1 X122.58 Y85.748 E0.30192
G1 X122.759 Y85.726 E0.30642
G1 X123.461 Y85.657 E0.32401
G1 X123.63 Y85.644 E0.32824
G1 X124.313 Y85.606 E0.34531
G1 X124.499 Y85.6 E0.34995
G1 X125.172 Y85.594 E0.36674
G1 X125.336 Y85.596 E0.37083
G1 X125.99 Y85.617 E0.38715
G1 X126.189 Y85.628 E0.39212
G1 X126.884 Y85.685 E0.40952
G1 X127.062 Y85.704 E0.41398
G1 X127.769 Y85.794 E0.43176
G1 X127.949 Y85.821 E0.4363
G1 X128.593 Y85.933 E0.45261
G1 X128.775 Y85.969 E0.45723
G1 X129.437 Y86.116 E0.47415
G1 X129.617 Y86.16 E0.47877
G1 X130.266 Y86.336 E0.49555
G1 X130.428 Y86.384 E0.49976
G1 X131.087 Y86.593 E0.51701
G1 X131.269 Y86.656 E0.52181
G1 X131.927 Y86.9 E0.53932
G1 X132.084 Y86.962 E0.54353
G1 X132.682 Y87.213 E0.55971
G1 X132.863 Y87.294 E0.56465
G1 X133.512 Y87.605 E0.58261
G1 X133.66 Y87.68 E0.58674
G1 X134.279 Y88.009 E0.60423
G1 X134.436 Y88.097 E0.60872
G1 X135.308 Y88.612 E0.63398
G1 X135.346 Y88.635 E0.63509
G1 X136.731 Y89.474 E0.67548
G1 X136.774 Y89.5 E0.67674
G1 X137.36 Y89.865 E0.69396
G1 X137.817 Y90.197 E0.70805
G1 X138.223 Y90.59 E0.72215
G1 X138.57 Y91.037 E0.73626
G1 X138.85 Y91.528 E0.75036
G1 X139.04 Y91.995 E0.76294
G1 X139.106 Y92.193 E0.76814
G1 X139.154 Y92.347 E0.77217
G1 X139.241 Y92.648 E0.77998
G1 X139.255 Y92.698 E0.78128
G1 X139.964 Y95.276 E0.84798
G1 X139.991 Y95.382 E0.8507
G1 X140.268 Y96.509 E0.87965
G1 X140.295 Y96.626 E0.88265
G1 X140.519 Y97.671 E0.90931
G1 X140.544 Y97.796 E0.91249
G1 X140.724 Y98.789 E0.93766
G1 X140.743 Y98.902 E0.94052
G1 X140.89 Y99.871 E0.96497
G1 X140.906 Y99.988 E0.96792
G1 X141.022 Y100.942 E0.99189
G1 X141.035 Y101.063 E0.99492
G1 X141.133 Y102.14 E1.0219
G1 X141.142 Y102.26 E1.0249
G1 X141.198 Y103.185 E1.04802
G1 X141.203 Y103.302 E1.05094
G1 X141.238 Y104.419 E1.07882
G1 X141.24 Y104.539 E1.08181
G1 X141.241 Y105.409 E1.10351
G1 X141.239 Y105.533 E1.10661
G1 X141.205 Y106.679 E1.13521
G1 X141.2 Y106.797 E1.13815
G1 X141.148 Y107.674 E1.16007
G1 X141.139 Y107.794 E1.16307
G1 X141.037 Y108.932 E1.19157
G1 X141.024 Y109.055 E1.19466
G1 X140.915 Y109.956 E1.2173
G1 X140.899 Y110.074 E1.22027
G1 X140.75 Y111.06 E1.24514
G1 X140.731 Y111.174 E1.24802
G1 X140.545 Y112.202 E1.27408
G1 X140.521 Y112.323 E1.27716
G1 X140.307 Y113.328 E1.30279
G1 X140.28 Y113.447 E1.30584
G1 X140.001 Y114.585 E1.33507
G1 X139.979 Y114.67 E1.33726
G1 X139.801 Y115.333 E1.35438
G1 X139.792 Y115.367 E1.35526
G1 X139.288 Y117.181 E1.40222
G1 X139.273 Y117.232 E1.40355
G1 X139.095 Y117.841 E1.41938
G1 X138.899 Y118.371 E1.43347
G1 X138.629 Y118.868 E1.44758
G1 X138.293 Y119.322 E1.46167
G1 X137.895 Y119.725 E1.4758
G1 X137.616 Y119.949 E1.48472
G1 X137.449 Y120.071 E1.48988
G1 X137.194 Y120.243 E1.49756
G1 X136.895 Y120.428 E1.50633
G1 X136.862 Y120.447 E1.50728
G1 X135.348 Y121.364 E1.55143
G1 X135.308 Y121.389 E1.55261
G1 X134.594 Y121.81 E1.57328
G1 X134.505 Y121.86 E1.57583
G1 X133.94 Y122.174 E1.59195
G1 X133.783 Y122.257 E1.59638
G1 X133.186 Y122.555 E1.61303
G1 X133.021 Y122.633 E1.61758
G1 X132.405 Y122.906 E1.63439
G1 X132.237 Y122.976 E1.63893
G1 X131.57 Y123.236 E1.65679
G1 X131.403 Y123.297 E1.66122
G1 X130.805 Y123.5 E1.67698
G1 X130.627 Y123.556 E1.68163
G1 X129.947 Y123.752 E1.69928
G1 X129.771 Y123.798 E1.70382
G1 X129.099 Y123.959 E1.72106
G1 X128.938 Y123.994 E1.72517
G1 X128.281 Y124.123 E1.74187
G1 X128.08 Y124.157 E1.74696
G1 X127.42 Y124.252 E1.76359
G1 X127.241 Y124.274 E1.76809
G1 X126.539 Y124.343 E1.78568
G1 X126.37 Y124.356 E1.78991
G1 X125.687 Y124.394 E1.80698
G1 X125.501 Y124.4 E1.81162
G1 X124.828 Y124.406 E1.82841
G1 X124.664 Y124.404 E1.8325
G1 X124.01 Y124.383 E1.84882
G1 X123.811 Y124.372 E1.85379
G1 X123.116 Y124.315 E1.87119
G1 X122.938 Y124.296 E1.87565
G1 X122.231 Y124.206 E1.89343
G1 X122.051 Y124.179 E1.89797
G1 X121.407 Y124.067 E1.91428
G1 X121.225 Y124.031 E1.91891
G1 X120.563 Y123.884 E1.93582
G1 X120.383 Y123.84 E1.94044
G1 X119.734 Y123.664 E1.95722
G1 X119.572 Y123.616 E1.96143
G1 X118.913 Y123.407 E1.97868
G1 X118.731 Y123.344 E1.98348
G1 X118.073 Y123.1 E2.00099
G1 X117.916 Y123.038 E2.0052
G1 X117.318 Y122.787 E2.02138
G1 X117.137 Y122.706 E2.02632
G1 X116.488 Y122.395 E2.04428
G1 X116.34 Y122.32 E2.04841
G1 X115.721 Y121.991 E2.0659
G1 X115.564 Y121.903 E2.07039
G1 X114.68 Y121.381 E2.096
G1 X114.641 Y121.358 E2.09713
G1 X113.268 Y120.526 E2.13718
G1 X113.226 Y120.5 E2.13841
G1 X112.64 Y120.135 E2.15563
G1 X112.183 Y119.803 E2.16972
G1 X111.777 Y119.41 E2.18382
G1 X111.43 Y118.963 E2.19793
G1 X111.15 Y118.472 E2.21203
G1 X110.96 Y118.005 E2.22461
G1 X110.894 Y117.807 E2.22981
G1 X110.845 Y117.649 E2.23394
G1 X110.752 Y117.326 E2.24233
G1 X110.741 Y117.287 E2.24334
G1 X110.208 Y115.363 E2.29314
G1 X110.2 Y115.332 E2.29394
G1 X110.03 Y114.699 E2.31029
G1 X110.009 Y114.618 E2.31237
G1 X109.732 Y113.492 E2.3413
G1 X109.705 Y113.374 E2.34432
G1 X109.481 Y112.329 E2.37098
G1 X109.456 Y112.203 E2.37418
G1 X109.275 Y111.203 E2.39953
G1 X109.256 Y111.089 E2.40242
G1 X109.115 Y110.157 E2.42593
G1 X109.1 Y110.045 E2.42875
G1 X108.975 Y109.023 E2.45443
G1 X108.961 Y108.896 E2.45762
G1 X108.865 Y107.831 E2.48429
G1 X108.856 Y107.713 E2.48725
G1 X108.799 Y106.77 E2.51081
G1 X108.794 Y106.652 E2.51376
G1 X108.763 Y105.641 E2.53899
G1 X108.761 Y105.522 E2.54196
G1 X108.76 Y104.552 E2.56616
G1 X108.762 Y104.432 E2.56915
G1 X108.793 Y103.361 E2.59588
G1 X108.798 Y103.241 E2.59887
G1 X108.854 Y102.293 E2.62256
G1 X108.863 Y102.168 E2.62569
G1 X108.958 Y101.121 E2.65191
G1 X108.971 Y101.002 E2.6549
G1 X109.096 Y99.967 E2.68091
G1 X109.112 Y99.847 E2.68393
G1 X109.25 Y98.938 E2.70686
G1 X109.269 Y98.823 E2.70977
G1 X109.457 Y97.788 E2.73601
G1 X109.48 Y97.671 E2.73898
G1 X109.693 Y96.669 E2.76454
G1 X109.721 Y96.549 E2.76761
G1 X109.999 Y95.415 E2.79674
G1 X110.021 Y95.33 E2.79893
G1 X110.199 Y94.667 E2.81605
G1 X110.208 Y94.633 E2.81693
G1 X110.712 Y92.819 E2.86389
G1 X110.727 Y92.768 E2.86522
G1 X110.905 Y92.159 E2.88104
G1 X111.101 Y91.629 E2.89514
G1 X111.371 Y91.132 E2.90925
G1 X111.707 Y90.678 E2.92334
G0 F3600 X112.065 Y90.876
G1 F1800 X112.62 Y90.374 E2.94201
G1 X112.787 Y90.252 E2.94717
G1 X113.017 Y90.098 E2.95407
G1 X113.316 Y89.913 E2.96284
G1 X113.345 Y89.895 E2.96369
G1 X114.862 Y88.976 E3.00794
G1 X114.899 Y88.953 E3.00902
G1 X115.61 Y88.534 E3.02961
G1 X115.689 Y88.489 E3.03188
G1 X116.254 Y88.175 E3.048
G1 X116.395 Y88.101 E3.05197
G1 X116.992 Y87.803 E3.06862
G1 X117.141 Y87.733 E3.07273
G1 X117.757 Y87.46 E3.08953
G1 X117.909 Y87.397 E3.09364
G1 X118.576 Y87.137 E3.1115
G1 X118.726 Y87.082 E3.11548
G1 X119.324 Y86.879 E3.13123
G1 X119.484 Y86.829 E3.13542
G1 X120.164 Y86.633 E3.15307
G1 X120.322 Y86.591 E3.15715
G1 X120.994 Y86.43 E3.17438
G1 X121.139 Y86.398 E3.17809
G1 X121.796 Y86.269 E3.19479
G1 X121.977 Y86.239 E3.19937
G1 X122.637 Y86.144 E3.216
G1 X122.798 Y86.124 E3.22005
G1 X123.5 Y86.055 E3.23764
G1 X123.652 Y86.044 E3.24145
G1 X124.335 Y86.006 E3.25851
G1 X124.503 Y86 E3.2627
G1 X125.176 Y85.994 E3.27949
G1 X125.324 Y85.996 E3.28318
G1 X125.978 Y86.017 E3.29951
G1 X126.156 Y86.027 E3.30395
G1 X126.851 Y86.084 E3.32135
G1 X127.012 Y86.101 E3.32539
G1 X127.719 Y86.191 E3.34317
G1 X127.881 Y86.215 E3.34725
G1 X128.525 Y86.327 E3.36356
G1 X128.688 Y86.36 E3.3677
G1 X129.35 Y86.507 E3.38462
G1 X129.512 Y86.546 E3.38878
G1 X130.161 Y86.722 E3.40555
G1 X130.307 Y86.765 E3.40935
G1 X130.966 Y86.974 E3.42659
G1 X131.13 Y87.031 E3.43092
G1 X131.788 Y87.275 E3.44843
G1 X131.929 Y87.331 E3.45222
G1 X132.527 Y87.582 E3.46839
G1 X132.69 Y87.655 E3.47285
G1 X133.339 Y87.966 E3.4908
G1 X133.473 Y88.033 E3.49454
G1 X134.092 Y88.362 E3.51202
G1 X134.233 Y88.441 E3.51606
G1 X135.105 Y88.956 E3.54132
G1 X135.139 Y88.977 E3.54232
G1 X136.524 Y89.816 E3.58271
G1 X136.562 Y89.839 E3.58382
G1 X137.148 Y90.204 E3.60104
G1 X137.581 Y90.521 E3.61443
G1 X137.962 Y90.898 E3.6278
G1 X138.283 Y91.328 E3.64118
G1 X138.536 Y91.801 E3.65456
G1 X138.66 Y92.122 E3.66315
G1 X138.726 Y92.32 E3.66835
G1 X138.769 Y92.458 E3.67196
G1 X138.856 Y92.759 E3.67977
G1 X138.869 Y92.804 E3.68094
G1 X139.578 Y95.382 E3.74764
G1 X139.603 Y95.478 E3.75011
G1 X139.88 Y96.605 E3.77906
G1 X139.904 Y96.709 E3.78173
G1 X140.128 Y97.754 E3.80839
G1 X140.15 Y97.867 E3.81126
G1 X140.33 Y98.86 E3.83643
G1 X140.347 Y98.962 E3.83901
G1 X140.494 Y99.931 E3.86346
G1 X140.509 Y100.036 E3.8661
G1 X140.625 Y100.99 E3.89008
G1 X140.636 Y101.099 E3.89281
G1 X140.734 Y102.176 E3.91979
G1 X140.742 Y102.284 E3.92249
G1 X140.798 Y103.209 E3.94561
G1 X140.803 Y103.314 E3.94823
G1 X140.838 Y104.431 E3.9761
G1 X140.84 Y104.54 E3.97882
G1 X140.841 Y105.41 E4.00053
G1 X140.839 Y105.521 E4.0033
G1 X140.805 Y106.667 E4.0319
G1 X140.801 Y106.773 E4.03454
G1 X140.749 Y107.65 E4.05646
G1 X140.741 Y107.758 E4.05916
G1 X140.639 Y108.896 E4.08766
G1 X140.627 Y109.007 E4.09044
G1 X140.518 Y109.908 E4.11308
G1 X140.504 Y110.014 E4.11575
G1 X140.355 Y111 E4.14063
G1 X140.337 Y111.103 E4.14323
G1 X140.151 Y112.131 E4.16929
G1 X140.13 Y112.24 E4.17206
G1 X139.916 Y113.245 E4.1977
G1 X139.891 Y113.352 E4.20044
G1 X139.612 Y114.49 E4.22966
G1 X139.593 Y114.566 E4.23162
G1 X139.415 Y115.229 E4.24874
G1 X139.407 Y115.26 E4.24954
G1 X138.903 Y117.074 E4.29651
G1 X138.889 Y117.12 E4.29771
G1 X138.711 Y117.729 E4.31353
G1 X138.523 Y118.231 E4.3269
G1 X138.262 Y118.7 E4.34029
G1 X137.935 Y119.124 E4.35365
G1 X137.38 Y119.626 E4.37232
G1 X137.213 Y119.748 E4.37748
G1 X136.983 Y119.902 E4.38438
G1 X136.684 Y120.087 E4.39315
G1 X136.655 Y120.105 E4.394
G1 X135.141 Y121.022 E4.43816
G1 X135.104 Y121.044 E4.43923
G1 X134.39 Y121.465 E4.45991
G1 X134.311 Y121.511 E4.46219
G1 X133.746 Y121.825 E4.47831
G1 X133.605 Y121.899 E4.48229
G1 X133.008 Y122.197 E4.49893
G1 X132.859 Y122.267 E4.50304
G1 X132.243 Y122.54 E4.51984
G1 X132.091 Y122.603 E4.52395
G1 X131.424 Y122.863 E4.54181
G1 X131.274 Y122.918 E4.54579
G1 X130.676 Y123.121 E4.56154
G1 X130.516 Y123.171 E4.56573
G1 X129.836 Y123.367 E4.58338
G1 X129.678 Y123.409 E4.58746
G1 X129.006 Y123.57 E4.6047
G1 X128.861 Y123.602 E4.6084
G1 X128.204 Y123.731 E4.6251
G1 X128.023 Y123.761 E4.62968
G1 X127.363 Y123.856 E4.64631
G1 X127.202 Y123.876 E4.65036
G1 X126.5 Y123.945 E4.66795
G1 X126.348 Y123.956 E4.67176
G1 X125.665 Y123.994 E4.68882
G1 X125.497 Y124 E4.69301
G1 X124.824 Y124.006 E4.7098
G1 X124.676 Y124.004 E4.71349
G1 X124.022 Y123.983 E4.72982
G1 X123.844 Y123.973 E4.73426
G1 X123.149 Y123.916 E4.75166
G1 X122.988 Y123.899 E4.7557
G1 X122.281 Y123.809 E4.77348
G1 X122.119 Y123.785 E4.77756
G1 X121.475 Y123.673 E4.79387
G1 X121.312 Y123.64 E4.79802
G1 X120.65 Y123.493 E4.81493
G1 X120.488 Y123.454 E4.81909
G1 X119.839 Y123.278 E4.83586
G1 X119.693 Y123.235 E4.83966
G1 X119.034 Y123.026 E4.8569
G1 X118.87 Y122.969 E4.86124
G1 X118.212 Y122.725 E4.87874
G1 X118.071 Y122.669 E4.88253
G1 X117.473 Y122.418 E4.8987
G1 X117.31 Y122.345 E4.90316
G1 X116.661 Y122.034 E4.92111
G1 X116.527 Y121.967 E4.92485
G1 X115.908 Y121.638 E4.94233
G1 X115.768 Y121.559 E4.94634
G1 X114.884 Y121.037 E4.97195
G1 X114.848 Y121.016 E4.97299
G1 X113.475 Y120.184 E5.01304
G1 X113.438 Y120.161 E5.01413
G1 X112.852 Y119.796 E5.03135
G1 X112.419 Y119.479 E5.04474
G1 X112.038 Y119.102 E5.05811
G1 X111.717 Y118.672 E5.07149
G1 X111.464 Y118.199 E5.08487
G1 X111.34 Y117.878 E5.09346
G1 X111.274 Y117.68 E5.09866
G1 X111.23 Y117.538 E5.10237
G1 X111.137 Y117.215 E5.11076
G1 X111.127 Y117.18 E5.11166
G1 X110.594 Y115.256 E5.16147
G1 X110.586 Y115.229 E5.16217
G1 X110.416 Y114.596 E5.17852
G1 X110.397 Y114.522 E5.18042
G1 X110.12 Y113.396 E5.20935
G1 X110.096 Y113.291 E5.21204
G1 X109.872 Y112.246 E5.2387
G1 X109.85 Y112.132 E5.24159
G1 X109.669 Y111.132 E5.26694
G1 X109.652 Y111.03 E5.26952
G1 X109.511 Y110.098 E5.29304
G1 X109.497 Y109.996 E5.2956
G1 X109.372 Y108.974 E5.32129
G1 X109.36 Y108.86 E5.32415
G1 X109.264 Y107.795 E5.35082
G1 X109.256 Y107.689 E5.35347
G1 X109.199 Y106.746 E5.37704
G1 X109.194 Y106.639 E5.37971
G1 X109.163 Y105.628 E5.40494
G1 X109.161 Y105.522 E5.40759
G1 X109.16 Y104.552 E5.43178
G1 X109.162 Y104.444 E5.43448
G1 X109.193 Y103.373 E5.46121
G1 X109.197 Y103.265 E5.4639
G1 X109.253 Y102.317 E5.48759
G1 X109.262 Y102.204 E5.49042
G1 X109.357 Y101.157 E5.51664
G1 X109.368 Y101.05 E5.51933
G1 X109.493 Y100.015 E5.54533
G1 X109.508 Y99.907 E5.54805
G1 X109.646 Y98.998 E5.57099
G1 X109.663 Y98.895 E5.57359
G1 X109.851 Y97.86 E5.59983
G1 X109.872 Y97.754 E5.60253
G1 X110.085 Y96.752 E5.62808
G1 X110.11 Y96.644 E5.63085
G1 X110.388 Y95.51 E5.65997
G1 X110.407 Y95.434 E5.66193
G1 X110.585 Y94.771 E5.67905
G1 X110.593 Y94.74 E5.67985
G1 X111.097 Y92.926 E5.72681
G1 X111.111 Y92.88 E5.72801
G1 X111.289 Y92.271 E5.74384
G1 X111.477 Y91.769 E5.75721
G1 X111.738 Y91.3 E5.7706
G1 X112.065 Y90.876 E5.78396
G0 F3600 X112.422 Y91.079
G1 F1800 X112.856 Y90.697 E5.79838
G1 X113.023 Y90.575 E5.80354
G1 X113.227 Y90.438 E5.80967
G1 X113.526 Y90.253 E5.81844
G1 X113.552 Y90.237 E5.8192
G1 X115.069 Y89.318 E5.86344
G1 X115.102 Y89.298 E5.86441
G1 X115.813 Y88.879 E5.88499
G1 X115.884 Y88.839 E5.88703
G1 X116.449 Y88.525 E5.90315
G1 X116.574 Y88.459 E5.90668
G1 X117.171 Y88.161 E5.92332
G1 X117.303 Y88.098 E5.92697
G1 X117.919 Y87.825 E5.94378
G1 X118.054 Y87.77 E5.94741
G1 X118.721 Y87.51 E5.96527
G1 X118.854 Y87.461 E5.96881
G1 X119.452 Y87.258 E5.98456
G1 X119.595 Y87.213 E5.9883
G1 X120.275 Y87.017 E6.00595
G1 X120.415 Y86.98 E6.00957
G1 X121.087 Y86.819 E6.0268
G1 X121.216 Y86.791 E6.0301
G1 X121.873 Y86.662 E6.0468
G1 X122.034 Y86.635 E6.05087
G1 X122.694 Y86.54 E6.0675
G1 X122.837 Y86.522 E6.0711
G1 X123.539 Y86.453 E6.0887
G1 X123.674 Y86.443 E6.09207
G1 X124.357 Y86.405 E6.10914
G1 X124.506 Y86.4 E6.11285
G1 X125.179 Y86.394 E6.12964
G1 X125.311 Y86.396 E6.13294
G1 X125.965 Y86.417 E6.14926
G1 X126.124 Y86.426 E6.15323
G1 X126.819 Y86.483 E6.17063
G1 X126.961 Y86.498 E6.17419
G1 X127.668 Y86.588 E6.19197
G1 X127.812 Y86.609 E6.1956
G1 X128.456 Y86.721 E6.2119
G1 X128.602 Y86.75 E6.21562
G1 X129.264 Y86.897 E6.23253
G1 X129.408 Y86.933 E6.23623
G1 X130.057 Y87.109 E6.25301
G1 X130.186 Y87.147 E6.25636
G1 X130.845 Y87.356 E6.27361
G1 X130.991 Y87.406 E6.27746
G1 X131.649 Y87.65 E6.29496
G1 X131.774 Y87.699 E6.29831
G1 X132.372 Y87.95 E6.31449
G1 X132.517 Y88.015 E6.31846
G1 X133.166 Y88.326 E6.33641
G1 X133.285 Y88.386 E6.33973
G1 X133.904 Y88.715 E6.35722
G1 X134.029 Y88.786 E6.36081
G1 X134.901 Y89.301 E6.38607
G1 X134.932 Y89.319 E6.38696
G1 X136.317 Y90.158 E6.42736
G1 X136.351 Y90.179 E6.42835
G1 X136.937 Y90.544 E6.44557
G1 X137.344 Y90.844 E6.45819
