;FLAVOR:Marlin
;TIME:2781
;Filament used: 2.26529m
;Layer height: 0.2
;MINX:108.128
;MINY:81.17
;MINZ:0.15
;MAXX:145.671
;MAXY:123.247
;MAXZ:59.95
;Generated with Cura_SteamEngine 4.1.0
M82 ;absolute extrusion mode
G21 ; set units to millimeters
G90 ; use absolute positioning
M82 ; absolute extrusion mode
M104 S200 ; set extruder temp
M140 S60 ; set bed temp
M190 S60 ; wait for bed temp
M109 S200 ; wait for extruder temp
G28 W ; home all without mesh bed level
G80 ; mesh bed leveling
G92 E0.0 ; reset extruder distance position
G1 Y-3.0 F1000.0 ; go outside print area
G1 X60.0 E9.0 F1000.0 ; intro line
G1 X100.0 E21.5 F1000.0 ; intro line
G92 E0.0 ; reset extruder distance position
G92 E0
G92 E0
G1 F2100 E-0.8
;LAYER_COUNT:300
;LAYER:0
M107
G0 F3600 X109.528 Y84.538 Z0.15
;TYPE:SKIRT
G1 F2100 E0
G1 F1800 X110.011 Y83.913 E0.0197
G1 X110.555 Y83.34 E0.03941
G1 X111.154 Y82.826 E0.0591
G1 X111.802 Y82.374 E0.07881
G1 X112.492 Y81.991 E0.0985
G1 X113.218 Y81.679 E0.11821
G1 X113.971 Y81.442 E0.1379
G1 X114.745 Y81.283 E0.15761
G1 X115.84 Y81.193 E0.18502
G1 X117.725 Y81.171 E0.23204
G1 X117.816 Y81.17 E0.23431
G1 X137.733 Y81.17 E0.73114
G1 X138.522 Y81.21 E0.75085
G1 X139.302 Y81.329 E0.77053
G1 X140.067 Y81.527 E0.79025
G1 X140.807 Y81.801 E0.80993
G1 X141.516 Y82.149 E0.82963
G1 X142.187 Y82.567 E0.84935
G1 X142.811 Y83.05 E0.86904
G1 X143.384 Y83.593 E0.88873
G1 X143.899 Y84.192 E0.90843
G1 X144.35 Y84.84 E0.92813
G1 X144.734 Y85.531 E0.94785
G1 X145.046 Y86.256 E0.96754
G1 X145.283 Y87.009 E0.98723
G1 X145.442 Y87.783 E1.00694
G1 X145.533 Y88.929 E1.03562
G1 X145.671 Y115.379 E1.69542
G1 X145.635 Y116.168 E1.71512
G1 X145.52 Y116.949 E1.73482
G1 X145.326 Y117.715 E1.75453
G1 X145.056 Y118.457 E1.77422
G1 X144.712 Y119.168 E1.79393
G1 X144.298 Y119.84 E1.81362
G1 X143.818 Y120.467 E1.83331
G1 X143.277 Y121.043 E1.85303
G1 X142.681 Y121.561 E1.87272
G1 X142.035 Y122.015 E1.89242
G1 X141.347 Y122.403 E1.91212
G1 X140.713 Y122.684 E1.92942
G1 X140.644 Y122.711 E1.93127
G1 X139.895 Y122.961 E1.95097
G1 X139.125 Y123.134 E1.97065
G1 X138.341 Y123.228 E1.99035
G1 X137.802 Y123.247 E2.00381
G1 X115.963 Y123.247 E2.54858
G1 X115.174 Y123.207 E2.56829
G1 X114.394 Y123.088 E2.58797
G1 X113.629 Y122.89 E2.60768
G1 X112.889 Y122.616 E2.62737
G1 X112.18 Y122.268 E2.64707
G1 X111.679 Y121.966 E2.66166
G1 X111.644 Y121.943 E2.66271
G1 X111.007 Y121.476 E2.68241
G1 X110.421 Y120.947 E2.7021
G1 X109.89 Y120.362 E2.72181
G1 X109.422 Y119.726 E2.74151
G1 X109.02 Y119.047 E2.76119
G1 X108.689 Y118.33 E2.78089
G1 X108.433 Y117.583 E2.80059
G1 X108.253 Y116.814 E2.82029
G1 X108.152 Y116.031 E2.83998
G1 X108.128 Y115.423 E2.85516
G1 X108.131 Y88.991 E3.51451
G1 X108.171 Y88.202 E3.53422
G1 X108.291 Y87.422 E3.5539
G1 X108.489 Y86.657 E3.57361
G1 X108.763 Y85.917 E3.5933
G1 X109.11 Y85.208 E3.61299
G1 X109.528 Y84.538 E3.63269
G0 F3600 X109.926 Y84.668
G1 F1800 X110.407 Y84.068 E3.65187
G1 X110.948 Y83.521 E3.67106
G1 X111.543 Y83.034 E3.69024
G1 X112.185 Y82.61 E3.70944
G1 X112.868 Y82.256 E3.72863
G1 X113.583 Y81.974 E3.7478
G1 X114.324 Y81.769 E3.76698
G1 X115.083 Y81.641 E3.78618
G1 X115.845 Y81.593 E3.80522
G1 X117.73 Y81.571 E3.85225
G1 X117.816 Y81.57 E3.85439
G1 X137.733 Y81.57 E4.35122
G1 X138.501 Y81.61 E4.37041
G1 X139.261 Y81.729 E4.3896
G1 X140.004 Y81.927 E4.40878
G1 X140.723 Y82.201 E4.42797
G1 X141.409 Y82.548 E4.44715
G1 X142.056 Y82.964 E4.46634
G1 X142.656 Y83.445 E4.48552
G1 X143.203 Y83.986 E4.50471
G1 X143.691 Y84.581 E4.52391
G1 X144.114 Y85.223 E4.54309
G1 X144.469 Y85.906 E4.56229
G1 X144.75 Y86.621 E4.58145
G1 X144.956 Y87.363 E4.60066
G1 X145.084 Y88.121 E4.61984
G1 X145.133 Y88.931 E4.64008
G1 X145.271 Y115.381 E5.29989
G1 X145.235 Y116.15 E5.31909
G1 X145.119 Y116.91 E5.33827
G1 X144.926 Y117.654 E5.35744
G1 X144.656 Y118.375 E5.37665
G1 X144.312 Y119.063 E5.39583
G1 X143.899 Y119.712 E5.41502
G1 X143.421 Y120.314 E5.4342
G1 X142.883 Y120.864 E5.45339
G1 X142.291 Y121.355 E5.47258
G1 X141.651 Y121.782 E5.49177
G1 X140.97 Y122.14 E5.51096
G1 X140.568 Y122.311 E5.52186
G1 X140.499 Y122.338 E5.52371
G1 X139.769 Y122.581 E5.5429
G1 X139.018 Y122.746 E5.56208
G1 X138.253 Y122.833 E5.58129
G1 X137.802 Y122.847 E5.59254
G1 X115.963 Y122.847 E6.13732
G1 X115.195 Y122.807 E6.1565
G1 X114.435 Y122.688 E6.17569
G1 X113.692 Y122.49 E6.19487
G1 X112.973 Y122.216 E6.21406
G1 X112.287 Y121.869 E6.23324
G1 X111.899 Y121.631 E6.2446
G1 X111.864 Y121.608 E6.24564
G1 X111.244 Y121.153 E6.26482
G1 X110.675 Y120.636 E6.284
G1 X110.162 Y120.062 E6.30321
G1 X109.712 Y119.439 E6.32238
G1 X109.329 Y118.772 E6.34156
G1 X109.017 Y118.069 E6.36075
G1 X108.78 Y117.337 E6.37994
G1 X108.62 Y116.585 E6.39912
G1 X108.539 Y115.82 E6.41831
G1 X108.528 Y115.423 E6.42822
G1 X108.531 Y88.991 E7.08757
G1 X108.571 Y88.223 E7.10675
G1 X108.691 Y87.463 E7.12594
G1 X108.888 Y86.72 E7.14512
G1 X109.162 Y86.001 E7.16431
G1 X109.509 Y85.315 E7.18349
G1 X109.926 Y84.668 E7.20269
G0 F3600 X110.323 Y84.803
G1 F1800 X110.802 Y84.228 E7.22136
G1 X111.34 Y83.708 E7.24002
G1 X111.93 Y83.248 E7.25869
G1 X112.566 Y82.854 E7.27735
G1 X113.24 Y82.53 E7.296
G1 X113.945 Y82.28 E7.31466
G1 X114.673 Y82.106 E7.33333
G1 X115.415 Y82.011 E7.35199
G1 X115.849 Y81.992 E7.36283
G1 X117.734 Y81.97 E7.40986
G1 X137.733 Y81.97 E7.90873
G1 X138.48 Y82.01 E7.92739
G1 X139.218 Y82.129 E7.94604
G1 X139.94 Y82.327 E7.96472
G1 X140.636 Y82.6 E7.98337
G1 X141.299 Y82.947 E8.00203
G1 X141.922 Y83.362 E8.02071
G1 X142.496 Y83.841 E8.03935
G1 X143.017 Y84.378 E8.05802
G1 X143.476 Y84.968 E8.07667
G1 X143.871 Y85.604 E8.09534
G1 X144.195 Y86.278 E8.114
G1 X144.445 Y86.983 E8.13266
G1 X144.619 Y87.711 E8.15133
G1 X144.714 Y88.453 E8.16999
G1 X144.733 Y88.933 E8.18197
G1 X144.871 Y115.383 E8.84178
G1 X144.835 Y116.131 E8.86046
G1 X144.719 Y116.87 E8.87912
G1 X144.525 Y117.592 E8.89777
G1 X144.256 Y118.29 E8.91643
G1 X143.913 Y118.955 E8.93509
G1 X143.501 Y119.579 E8.95374
G1 X143.025 Y120.157 E8.97242
G1 X142.49 Y120.68 E8.99109
G1 X141.903 Y121.142 E9.00972
G1 X141.269 Y121.54 E9.02839
G1 X140.422 Y121.939 E9.05175
G1 X140.353 Y121.966 E9.0536
G1 X139.643 Y122.201 E9.07225
G1 X138.911 Y122.359 E9.09093
G1 X137.802 Y122.447 E9.11868
G1 X115.963 Y122.447 E9.66346
G1 X115.216 Y122.407 E9.68212
G1 X114.478 Y122.288 E9.70077
G1 X113.756 Y122.09 E9.71944
G1 X113.06 Y121.817 E9.73809
G1 X112.119 Y121.297 E9.76491
G1 X112.084 Y121.274 E9.76596
G1 X111.481 Y120.83 E9.78464
G1 X110.93 Y120.325 E9.80328
G1 X110.435 Y119.764 E9.82194
G1 X110.004 Y119.153 E9.8406
G1 X109.64 Y118.499 E9.85927
G1 X109.347 Y117.811 E9.87792
G1 X109.13 Y117.095 E9.89658
G1 X108.991 Y116.36 E9.91524
G1 X108.928 Y115.423 E9.93867
G1 X108.931 Y88.991 E10.59802
G1 X108.971 Y88.244 E10.61668
G1 X109.091 Y87.506 E10.63533
G1 X109.288 Y86.784 E10.654
G1 X109.562 Y86.088 E10.67266
G1 X109.908 Y85.425 E10.69131
G1 X110.323 Y84.803 E10.70996
G0 F3600 X110.72 Y84.941
G1 F1800 X111.197 Y84.393 E10.72809
G1 X111.731 Y83.901 E10.7462
G1 X112.316 Y83.47 E10.76433
G1 X112.944 Y83.106 E10.78243
G1 X113.609 Y82.814 E10.80055
G1 X114.302 Y82.596 E10.81867
G1 X115.015 Y82.456 E10.8368
G1 X115.854 Y82.392 E10.85779
G1 X117.739 Y82.37 E10.90481
G1 X137.733 Y82.37 E11.40356
G1 X138.458 Y82.41 E11.42168
G1 X139.175 Y82.529 E11.43981
G1 X139.874 Y82.727 E11.45793
G1 X140.547 Y83 E11.47605
G1 X141.186 Y83.345 E11.49416
G1 X141.783 Y83.759 E11.51228
G1 X142.331 Y84.235 E11.53039
G1 X142.824 Y84.769 E11.54852
G1 X143.254 Y85.354 E11.56663
G1 X143.618 Y85.983 E11.58476
G1 X143.911 Y86.648 E11.60289
G1 X144.129 Y87.341 E11.62101
G1 X144.269 Y88.053 E11.63911
G1 X144.333 Y88.936 E11.66119
G1 X144.471 Y115.386 E12.321
G1 X144.435 Y116.111 E12.33911
G1 X144.319 Y116.828 E12.35723
G1 X144.125 Y117.528 E12.37535
G1 X143.856 Y118.203 E12.39347
G1 X143.514 Y118.843 E12.41157
G1 X143.103 Y119.443 E12.42972
G1 X142.63 Y119.993 E12.44781
G1 X142.098 Y120.489 E12.46596
G1 X141.516 Y120.922 E12.48405
G1 X140.889 Y121.29 E12.50219
G1 X140.276 Y121.566 E12.51896
G1 X140.207 Y121.593 E12.5208
G1 X139.517 Y121.82 E12.53892
G1 X138.806 Y121.97 E12.55705
G1 X137.802 Y122.047 E12.58217
G1 X115.963 Y122.047 E13.12695
G1 X115.238 Y122.007 E13.14506
G1 X114.521 Y121.888 E13.16319
G1 X113.822 Y121.69 E13.18131
G1 X113.149 Y121.417 E13.19943
G1 X112.338 Y120.963 E13.22261
G1 X112.303 Y120.94 E13.22366
G1 X111.719 Y120.508 E13.24178
G1 X111.186 Y120.015 E13.25989
G1 X110.71 Y119.466 E13.27801
G1 X110.298 Y118.868 E13.29613
G1 X109.953 Y118.228 E13.31427
G1 X109.681 Y117.555 E13.33237
G1 X109.485 Y116.856 E13.35048
G1 X109.367 Y116.139 E13.36861
G1 X109.328 Y115.423 E13.3865
G1 X109.331 Y88.991 E14.04584
G1 X109.371 Y88.266 E14.06396
G1 X109.491 Y87.55 E14.08207
G1 X109.688 Y86.851 E14.10018
G1 X109.961 Y86.177 E14.11832
G1 X110.307 Y85.539 E14.13643
G1 X110.72 Y84.941 E14.15456
G0 F3600 X110.705 Y85.656
G1 F1800 X111.117 Y85.085 E14.17212
G1 X111.591 Y84.564 E14.18969
G1 X112.121 Y84.101 E14.20725
G1 X112.7 Y83.701 E14.2248
G1 X113.32 Y83.368 E14.24236
G1 X113.975 Y83.109 E14.25993
G1 X114.654 Y82.925 E14.27748
G1 X115.35 Y82.819 E14.29504
G1 X115.859 Y82.792 E14.30775
G1 X117.744 Y82.77 E14.35478
G1 X137.733 Y82.77 E14.8534
G1 X138.436 Y82.81 E14.87097
G1 X139.13 Y82.929 E14.88853
G1 X139.805 Y83.127 E14.90608
G1 X140.454 Y83.399 E14.92363
G1 X141.068 Y83.744 E14.9412
G1 X141.639 Y84.155 E14.95875
G1 X142.16 Y84.629 E14.97632
G1 X142.624 Y85.159 E14.99389
G1 X143.024 Y85.738 E15.01145
G1 X143.356 Y86.359 E15.02902
G1 X143.616 Y87.013 E15.04657
G1 X143.8 Y87.693 E15.06414
G1 X143.906 Y88.389 E15.08171
G1 X143.933 Y88.938 E15.09542
G1 X144.071 Y115.388 E15.75522
G1 X144.035 Y116.091 E15.77278
G1 X143.919 Y116.785 E15.79034
G1 X143.725 Y117.462 E15.8079
G1 X143.456 Y118.112 E15.82545
G1 X143.115 Y118.728 E15.84301
G1 X142.706 Y119.301 E15.86058
G1 X142.235 Y119.824 E15.87813
G1 X141.707 Y120.291 E15.89572
G1 X141.13 Y120.694 E15.91327
G1 X140.511 Y121.03 E15.93084
G1 X140.13 Y121.194 E15.94119
G1 X140.061 Y121.221 E15.94304
G1 X139.392 Y121.44 E15.9606
G1 X138.703 Y121.581 E15.97814
G1 X137.802 Y121.647 E16.00068
G1 X115.963 Y121.647 E16.54545
G1 X115.26 Y121.607 E16.56302
G1 X114.566 Y121.488 E16.58058
G1 X113.891 Y121.29 E16.59813
G1 X113.242 Y121.018 E16.61568
G1 X112.558 Y120.628 E16.63532
G1 X112.523 Y120.605 E16.63637
G1 X111.958 Y120.186 E16.65392
G1 X111.443 Y119.705 E16.67149
G1 X110.987 Y119.169 E16.68905
G1 X110.594 Y118.585 E16.70661
G1 X110.27 Y117.96 E16.72417
G1 X110.019 Y117.302 E16.74174
G1 X109.845 Y116.62 E16.75929
G1 X109.748 Y115.923 E16.77685
G1 X109.728 Y115.423 E16.78933
G1 X109.731 Y88.991 E17.44868
G1 X109.771 Y88.288 E17.46624
G1 X109.891 Y87.595 E17.48379
G1 X110.088 Y86.919 E17.50135
G1 X110.361 Y86.27 E17.51892
G1 X110.705 Y85.656 E17.53647
G0 F3600 X111.103 Y85.778
G1 F1800 X111.513 Y85.234 E17.55347
G1 X111.984 Y84.742 E17.57046
G1 X112.509 Y84.309 E17.58743
G1 X113.082 Y83.94 E17.60443
G1 X113.693 Y83.641 E17.6214
G1 X114.336 Y83.416 E17.63839
G1 X115 Y83.267 E17.65537
G1 X115.863 Y83.192 E17.67698
G1 X117.748 Y83.17 E17.724
G1 X137.733 Y83.17 E18.22253
G1 X138.413 Y83.21 E18.23952
G1 X139.083 Y83.329 E18.2565
G1 X139.735 Y83.526 E18.27349
G1 X140.359 Y83.798 E18.29047
G1 X140.947 Y84.142 E18.30746
G1 X141.491 Y84.552 E18.32445
G1 X141.982 Y85.023 E18.34143
G1 X142.416 Y85.548 E18.35842
G1 X142.785 Y86.12 E18.3754
G1 X143.084 Y86.732 E18.39239
G1 X143.309 Y87.374 E18.40936
G1 X143.458 Y88.039 E18.42636
G1 X143.533 Y88.94 E18.44891
G1 X143.671 Y115.39 E19.10872
G1 X143.635 Y116.07 E19.12571
G1 X143.519 Y116.741 E19.14269
G1 X143.325 Y117.393 E19.15966
G1 X143.056 Y118.019 E19.17666
G1 X142.716 Y118.609 E19.19364
G1 X142.309 Y119.154 E19.21061
G1 X141.841 Y119.649 E19.2276
G1 X141.318 Y120.085 E19.24459
G1 X140.747 Y120.457 E19.26159
G1 X139.985 Y120.821 E19.28266
G1 X139.916 Y120.848 E19.2845
G1 X139.268 Y121.059 E19.3015
G1 X138.6 Y121.192 E19.31849
G1 X137.802 Y121.247 E19.33845
G1 X115.963 Y121.247 E19.88322
G1 X115.283 Y121.207 E19.90022
G1 X114.613 Y121.088 E19.91719
G1 X113.961 Y120.891 E19.93418
G1 X113.337 Y120.619 E19.95116
G1 X112.778 Y120.294 E19.96729
G1 X112.743 Y120.271 E19.96833
G1 X112.197 Y119.864 E19.98532
G1 X111.702 Y119.397 E20.0023
G1 X111.266 Y118.874 E20.01928
G1 X110.893 Y118.304 E20.03628
G1 X110.591 Y117.694 E20.05326
G1 X110.361 Y117.053 E20.07024
G1 X110.209 Y116.389 E20.08724
G1 X110.128 Y115.423 E20.11142
G1 X110.131 Y88.991 E20.77077
G1 X110.171 Y88.312 E20.78773
G1 X110.29 Y87.641 E20.80473
G1 X110.488 Y86.99 E20.82171
G1 X110.76 Y86.365 E20.83871
G1 X111.103 Y85.778 E20.85567
G0 F3600 X111.501 Y85.904
G1 F1800 X111.909 Y85.389 E20.87206
G1 X112.376 Y84.927 E20.88844
G1 X112.896 Y84.525 E20.90484
G1 X113.461 Y84.19 E20.92123
G1 X114.062 Y83.926 E20.9376
G1 X114.692 Y83.736 E20.95401
G1 X115.339 Y83.625 E20.97039
G1 X115.868 Y83.592 E20.98361
G1 X117.753 Y83.57 E21.03064
G1 X137.733 Y83.57 E21.52904
G1 X138.389 Y83.61 E21.54543
G1 X139.035 Y83.729 E21.56182
G1 X139.662 Y83.926 E21.57821
G1 X140.26 Y84.198 E21.5946
G1 X140.821 Y84.54 E21.61099
G1 X141.336 Y84.948 E21.62738
G1 X141.798 Y85.415 E21.64377
G1 X142.199 Y85.935 E21.66015
G1 X142.535 Y86.499 E21.67652
G1 X142.799 Y87.101 E21.69292
G1 X142.989 Y87.73 E21.70931
G1 X143.1 Y88.377 E21.72569
G1 X143.133 Y88.942 E21.73981
G1 X143.271 Y115.392 E22.39961
G1 X143.234 Y116.048 E22.416
G1 X143.118 Y116.694 E22.43238
G1 X142.925 Y117.322 E22.44876
G1 X142.656 Y117.922 E22.46517
G1 X142.317 Y118.484 E22.48154
G1 X141.912 Y119.002 E22.49794
G1 X141.447 Y119.466 E22.51433
G1 X140.93 Y119.87 E22.53069
G1 X140.367 Y120.209 E22.54709
G1 X139.839 Y120.449 E22.56156
G1 X139.77 Y120.476 E22.5634
G1 X139.145 Y120.677 E22.57978
G1 X138.499 Y120.802 E22.59619
G1 X137.802 Y120.847 E22.61362
G1 X115.963 Y120.847 E23.15839
G1 X115.307 Y120.807 E23.17479
G1 X114.661 Y120.688 E23.19117
G1 X114.034 Y120.491 E23.20757
G1 X113.436 Y120.219 E23.22396
G1 X112.997 Y119.96 E23.23667
G1 X112.962 Y119.937 E23.23772
G1 X112.436 Y119.543 E23.25411
G1 X111.962 Y119.089 E23.27048
G1 X111.546 Y118.58 E23.28688
G1 X111.195 Y118.025 E23.30326
G1 X110.915 Y117.431 E23.31964
G1 X110.708 Y116.807 E23.33604
G1 X110.579 Y116.163 E23.35243
G1 X110.528 Y115.423 E23.37093
G1 X110.531 Y88.991 E24.03028
G1 X110.571 Y88.336 E24.04665
G1 X110.69 Y87.69 E24.06303
G1 X110.887 Y87.063 E24.07943
G1 X111.159 Y86.465 E24.09582
G1 X111.501 Y85.904 E24.1122
G0 F3600 X111.899 Y86.035
G1 F1800 X112.304 Y85.55 E24.12797
G1 X112.767 Y85.12 E24.14373
G1 X113.281 Y84.752 E24.1595
G1 X113.837 Y84.452 E24.17526
G1 X114.427 Y84.224 E24.19104
G1 X115.041 Y84.072 E24.20681
G1 X115.873 Y83.992 E24.22766
G1 X117.758 Y83.97 E24.27469
G1 X137.733 Y83.97 E24.77297
G1 X138.364 Y84.01 E24.78874
G1 X138.985 Y84.129 E24.80451
G1 X139.585 Y84.326 E24.82027
G1 X140.157 Y84.597 E24.83605
G1 X140.689 Y84.937 E24.8518
G1 X141.174 Y85.343 E24.86758
G1 X141.604 Y85.806 E24.88334
G1 X141.973 Y86.32 E24.89913
G1 X142.273 Y86.876 E24.91489
G1 X142.501 Y87.465 E24.93064
G1 X142.653 Y88.079 E24.94642
G1 X142.733 Y88.944 E24.96809
G1 X142.871 Y115.394 E25.6279
G1 X142.834 Y116.025 E25.64367
G1 X142.718 Y116.646 E25.65942
G1 X142.525 Y117.248 E25.67519
G1 X142.257 Y117.821 E25.69097
G1 X141.919 Y118.355 E25.70674
G1 X141.516 Y118.842 E25.72251
G1 X141.055 Y119.275 E25.73828
G1 X140.544 Y119.646 E25.75404
G1 X139.989 Y119.949 E25.76981
G1 X139.693 Y120.076 E25.77784
G1 X139.624 Y120.103 E25.77969
G1 X139.022 Y120.296 E25.79546
G1 X138.4 Y120.411 E25.81124
G1 X137.802 Y120.447 E25.82618
G1 X115.963 Y120.447 E26.37096
G1 X115.332 Y120.407 E26.38673
G1 X114.711 Y120.288 E26.40251
G1 X114.111 Y120.091 E26.41826
G1 X113.539 Y119.82 E26.43405
G1 X113.217 Y119.626 E26.44343
G1 X113.182 Y119.603 E26.44447
G1 X112.677 Y119.223 E26.46024
G1 X112.224 Y118.782 E26.47601
G1 X111.829 Y118.288 E26.49178
G1 X111.501 Y117.748 E26.50754
G1 X111.243 Y117.171 E26.52331
G1 X111.06 Y116.566 E26.53908
G1 X110.955 Y115.942 E26.55486
G1 X110.928 Y115.423 E26.56783
G1 X110.931 Y88.991 E27.22718
G1 X110.971 Y88.361 E27.24292
G1 X111.09 Y87.74 E27.2587
